icons/microsoft.svg

<?xml version="1.0" encoding="UTF-8" standalone="no"?>
<svg width="512px" height="110px" viewBox="0 0 512 110" version="1.1" xmlns="http://www.w3.org/2000/svg" xmlns:xlink="http://www.w3.org/1999/xlink" preserveAspectRatio="xMidYMid">
	<g>
		<path d="M511.873981,49.436472 L511.873981,40.434383 L500.695,40.434383 L500.695,26.4391799 L500.318725,26.5549246 L489.818739,29.7673037 L489.612008,29.8304371 L489.612008,40.434383 L473.039474,40.434383 L473.039474,34.5276905 C473.039474,31.7770522 473.654716,29.6719845 474.866631,28.2681934 C476.070499,26.8811141 477.792433,26.1761238 479.987868,26.1761238 C481.566824,26.1761238 483.201485,26.5481161 484.84605,27.2815783 L485.258275,27.4654081 L485.258275,17.9848665 L485.064542,17.9136867 C483.530151,17.3621973 481.442414,17.0842863 478.855799,17.0842863 C475.595141,17.0842863 472.632201,17.7936093 470.048681,19.1998762 C467.463304,20.608 465.429416,22.6183675 464.005199,25.1746538 C462.585315,27.7278453 461.864851,30.6765493 461.864851,33.9396828 L461.864851,40.434383 L454.080867,40.434383 L454.080867,49.436472 L461.864851,49.436472 L461.864851,87.3604952 L473.039474,87.3604952 L473.039474,49.436472 L489.612008,49.436472 L489.612008,73.5367427 C489.612008,83.4623133 494.293787,88.4925648 503.526747,88.4925648 C505.044426,88.4925648 506.640737,88.3143056 508.27166,87.9658337 C509.931104,87.6086963 511.061317,87.251559 511.726669,86.8702824 L511.873981,86.7836286 L511.873981,77.6979807 L511.419667,77.998793 C510.813091,78.4035899 510.057965,78.7334932 509.172265,78.9785996 C508.282801,79.2286576 507.540054,79.3543056 506.965069,79.3543056 C504.801795,79.3543056 503.20182,78.7712495 502.208371,77.6212302 C501.204426,76.4606886 500.69505,74.4305145 500.69505,71.5913656 L500.69505,49.436472 L511.873981,49.436472 L511.873981,49.436472 Z M429.12619,79.3551721 C425.070174,79.3551721 421.87265,78.0101818 419.619033,75.3610522 C417.351799,72.6983056 416.203017,68.9022515 416.203017,64.0793501 C416.203017,59.1035667 417.351799,55.2090986 419.620271,52.4993114 C421.875126,49.8074739 425.042321,48.4414391 429.035203,48.4414391 C432.909865,48.4414391 435.99412,49.7461973 438.203172,52.3216712 C440.423985,54.9101431 441.550484,58.7736634 441.550484,63.8076286 C441.550484,68.9034894 440.490832,72.817764 438.401238,75.4359458 C436.326499,78.03494 433.206344,79.3551721 429.12619,79.3551721 L429.12619,79.3551721 Z M429.62383,39.3037988 C421.885648,39.3037988 415.73942,41.5710329 411.357834,46.0429865 C406.978723,50.515559 404.757911,56.7044952 404.757911,64.4402012 C404.757911,71.7872031 406.925493,77.6969903 411.200619,82.0024449 C415.475745,86.3097563 421.293926,88.4915745 428.49176,88.4915745 C435.992882,88.4915745 442.016557,86.1927737 446.396905,81.6589246 C450.776634,77.1294081 452.99559,70.9992727 452.99559,63.4443017 C452.99559,55.9821741 450.913424,50.028441 446.804797,45.7514584 C442.694313,41.472619 436.91265,39.3037988 429.62383,39.3037988 L429.62383,39.3037988 Z M386.741042,39.3035513 C381.477444,39.3035513 377.123711,40.6497795 373.797444,43.3044797 C370.451371,45.9746538 368.754195,49.477323 368.754195,53.7153114 C368.754195,55.9181741 369.120616,57.8753114 369.8417,59.5347311 C370.567116,61.2003404 371.689901,62.6660271 373.180965,63.8965106 C374.661506,65.1170909 376.945452,66.395853 379.973382,67.6962785 C382.517909,68.7435513 384.416245,69.6298956 385.62197,70.3280774 C386.800462,71.0120232 387.63729,71.7003017 388.109553,72.3700116 C388.568199,73.0254855 388.801545,73.922352 388.801545,75.0302824 C388.801545,78.1826228 386.440849,79.7163946 381.582667,79.7163946 C379.780887,79.7163946 377.725336,79.3406886 375.473576,78.5985609 C373.220578,77.8576712 371.11551,76.7924487 369.217792,75.4264139 L368.754195,75.0940348 L368.754195,85.8521006 L368.924408,85.9313269 C370.505839,86.6610754 372.498876,87.2763172 374.848431,87.7609594 C377.193653,88.2456015 379.324098,88.4925648 381.175394,88.4925648 C386.887116,88.4925648 391.486574,87.139528 394.842551,84.469354 C398.220191,81.7806112 399.932222,78.1956209 399.932222,73.8103211 C399.932222,70.6474584 399.010597,67.9345764 397.193963,65.7471876 C395.390326,63.5771296 392.259649,61.5853308 387.892299,59.8244023 C384.41315,58.4280387 382.184292,57.268735 381.265143,56.3792959 C380.378798,55.5195667 379.928818,54.3039381 379.928818,52.7645957 C379.928818,51.3997988 380.484021,50.3067234 381.624756,49.4209981 C382.774156,48.53094 384.373537,48.0784836 386.380191,48.0784836 C388.242009,48.0784836 390.147154,48.3724874 392.041158,48.948735 C393.934543,49.5249826 395.597057,50.2968201 396.985375,51.2413462 L397.441545,51.5532998 L397.441545,41.3479613 L397.266381,41.2724487 C395.985762,40.7234352 394.297251,40.253648 392.246651,39.8723714 C390.204098,39.4948085 388.351564,39.3035513 386.741042,39.3035513 L386.741042,39.3035513 Z M339.622435,79.3551721 C335.567657,79.3551721 332.368895,78.0101818 330.115897,75.3610522 C327.848044,72.6983056 326.701119,68.9034894 326.701119,64.0793501 C326.701119,59.1035667 327.849282,55.2090986 330.118373,52.4993114 C332.371371,49.8074739 335.537947,48.4414391 339.532686,48.4414391 C343.40611,48.4414391 346.490365,49.7461973 348.700036,52.3216712 C350.920849,54.9101431 352.047348,58.7736634 352.047348,63.8076286 C352.047348,68.9034894 350.987077,72.817764 348.897483,75.4359458 C346.822744,78.03494 343.703827,79.3551721 339.622435,79.3551721 L339.622435,79.3551721 Z M340.121313,39.3037988 C332.381274,39.3037988 326.235046,41.5710329 321.855317,46.0429865 C317.476206,50.515559 315.254156,56.7044952 315.254156,64.4402012 C315.254156,71.7902979 317.422976,77.6969903 321.698102,82.0024449 C325.973228,86.3097563 331.790791,88.4915745 338.989243,88.4915745 C346.488508,88.4915745 352.51404,86.1927737 356.894388,81.6589246 C361.27288,77.1294081 363.493073,70.9992727 363.493073,63.4443017 C363.493073,55.9821741 361.410288,50.028441 357.301042,45.7514584 C353.189321,41.472619 347.408895,39.3037988 340.121313,39.3037988 L340.121313,39.3037988 Z M298.291433,48.5606499 L298.291433,40.434383 L287.25298,40.434383 L287.25298,87.3592573 L298.291433,87.3592573 L298.291433,63.3555435 C298.291433,59.2735319 299.216771,55.9206499 301.04269,53.3878839 C302.845707,50.8854468 305.248493,49.617207 308.181723,49.617207 C309.175765,49.617207 310.291742,49.7812302 311.500562,50.1055629 C312.697003,50.4280387 313.563541,50.7777485 314.074798,51.1460271 L314.538396,51.4821199 L314.538396,40.3539188 L314.359518,40.2771683 C313.331433,39.8401857 311.877506,39.6198375 310.037351,39.6198375 C307.263812,39.6198375 304.781181,40.5111335 302.655069,42.2658723 C300.788918,43.8083095 299.439595,45.9232805 298.408415,48.5606499 L298.291433,48.5606499 L298.291433,48.5606499 Z M267.48571,39.3035513 C262.422035,39.3035513 257.904897,40.3898182 254.062422,42.5301663 C250.212518,44.6754662 247.235342,47.738677 245.209501,51.633764 C243.192944,55.5195667 242.169191,60.0583675 242.169191,65.1195667 C242.169191,69.5531451 243.161996,73.6221586 245.124085,77.2077679 C247.087412,80.7995667 249.866522,83.6096248 253.384046,85.5587157 C256.896619,87.5053308 260.956348,88.4925648 265.451203,88.4925648 C270.696851,88.4925648 275.175613,87.4434352 278.766793,85.3755048 L278.911629,85.2919458 L278.911629,75.1794507 L278.448031,75.5180193 C276.821416,76.7027002 275.003544,77.6484642 273.047644,78.3299342 C271.096696,79.0107853 269.317818,79.3549246 267.758669,79.3549246 C263.427219,79.3549246 259.950545,77.999412 257.426445,75.328 C254.896774,72.6522553 253.614298,68.8958143 253.614298,64.1682321 C253.614298,59.41094 254.951861,55.557942 257.587992,52.7144603 C260.215458,49.8796441 263.69894,48.4418104 267.940642,48.4418104 C271.568959,48.4418104 275.104433,49.6704371 278.449269,52.0967427 L278.911629,52.4328356 L278.911629,41.7775164 L278.76246,41.6933385 C277.503505,40.9889671 275.787141,40.4071489 273.655458,39.9658337 C271.533679,39.5257563 269.458321,39.3035513 267.48571,39.3035513 L267.48571,39.3035513 Z M234.566809,40.4345068 L223.528356,40.4345068 L223.528356,87.359381 L234.566809,87.359381 L234.566809,40.4345068 L234.566809,40.4345068 Z M229.160232,20.4441006 C227.343598,20.4441006 225.759072,21.0624371 224.457408,22.2879691 C223.150174,23.5172147 222.486654,25.0646035 222.486654,26.8905222 C222.486654,28.6879691 223.142128,30.2068859 224.436364,31.4033269 C225.722553,32.5960542 227.312031,33.2007737 229.160232,33.2007737 C231.007814,33.2007737 232.603482,32.5960542 233.905145,31.4051838 C235.215474,30.2068859 235.879613,28.6879691 235.879613,26.8905222 C235.879613,25.1283559 235.233424,23.596441 233.958994,22.3374855 C232.686422,21.0810058 231.071567,20.4441006 229.160232,20.4441006 L229.160232,20.4441006 Z M201.619247,36.972441 L201.619247,87.3591335 L212.884237,87.3591335 L212.884237,21.8810677 L197.293367,21.8810677 L177.475649,70.5161161 L158.244083,21.8810677 L142.018164,21.8810677 L142.018164,87.3591335 L152.60416,87.3591335 L152.60416,36.9674894 L152.968106,36.9674894 L173.276036,87.3591335 L181.264895,87.3591335 L201.25592,36.972441 L201.619247,36.972441 L201.619247,36.972441 Z" fill="#706D6E"></path>
		<path d="M51.9266538,51.9266538 L0,51.9266538 L0,0 L51.9266538,0 L51.9266538,51.9266538 L51.9266538,51.9266538 Z" fill="#F1511B"></path>
		<path d="M109.259884,51.9266538 L57.3338491,51.9266538 L57.3338491,0 L109.259884,0 L109.259884,51.9266538 L109.259884,51.9266538 Z" fill="#80CC28"></path>
		<path d="M51.9254159,109.280309 L0,109.280309 L0,57.3536557 L51.9254159,57.3536557 L51.9254159,109.280309 L51.9254159,109.280309 Z" fill="#00ADEF"></path>
		<path d="M109.259884,109.280309 L57.3338491,109.280309 L57.3338491,57.3536557 L109.259884,57.3536557 L109.259884,109.280309 L109.259884,109.280309 Z" fill="#FBBC09"></path>
	</g>
</svg>

<svg xmlns="http://www.w3.org/2000/svg" viewBox="0 0 511.874 109.28">
  <path fill="#706d6e" d="M511.874 49.436v-9.002h-11.179V26.44l-.376.116-10.5 3.212-.207.063v10.604h-16.573v-5.906c0-2.75.616-4.856 1.828-6.26 1.203-1.387 2.925-2.092 5.12-2.092 1.58 0 3.214.372 4.859 1.106l.412.183v-9.48l-.193-.071c-1.535-.552-3.623-.83-6.21-.83-3.26 0-6.223.71-8.806 2.116-2.586 1.408-4.62 3.418-6.044 5.975-1.42 2.553-2.14 5.502-2.14 8.765v6.494h-7.784v9.002h7.784V87.36h11.174V49.436h16.573v24.1c0 9.926 4.682 14.957 13.915 14.957 1.517 0 3.114-.179 4.745-.527 1.66-.357 2.79-.714 3.455-1.096l.147-.086v-9.086l-.454.3c-.607.406-1.362.735-2.248.98-.89.25-1.632.376-2.207.376-2.163 0-3.763-.583-4.757-1.733-1.004-1.16-1.513-3.19-1.513-6.03V49.436zm-82.748 29.92c-4.056 0-7.253-1.346-9.507-3.995-2.267-2.663-3.416-6.459-3.416-11.282 0-4.975 1.149-8.87 3.417-11.58 2.255-2.692 5.422-4.058 9.415-4.058 3.875 0 6.96 1.305 9.168 3.88 2.221 2.59 3.347 6.453 3.347 11.487 0 5.095-1.06 9.01-3.149 11.628-2.074 2.599-5.195 3.92-9.275 3.92zm.498-40.052c-7.738 0-13.885 2.267-18.266 6.739-4.38 4.473-6.6 10.661-6.6 18.397 0 7.347 2.167 13.257 6.443 17.562 4.275 4.308 10.093 6.49 17.29 6.49 7.502 0 13.526-2.3 17.906-6.833 4.38-4.53 6.599-10.66 6.599-18.215 0-7.462-2.083-13.416-6.191-17.693-4.11-4.278-9.892-6.447-17.181-6.447zm-42.883 0c-5.264 0-9.617 1.346-12.944 4-3.346 2.67-5.043 6.173-5.043 10.411 0 2.203.367 4.16 1.088 5.82.725 1.665 1.848 3.131 3.339 4.362 1.48 1.22 3.764 2.499 6.792 3.8 2.545 1.047 4.443 1.933 5.649 2.631 1.178.684 2.015 1.372 2.488 2.042.458.655.692 1.552.692 2.66 0 3.153-2.361 4.686-7.22 4.686-1.801 0-3.857-.375-6.108-1.117a22.967 22.967 0 0 1-6.256-3.173l-.464-.332v10.758l.17.08c1.582.73 3.575 1.344 5.924 1.829 2.346.485 4.476.732 6.327.732 5.712 0 10.312-1.353 13.668-4.024 3.377-2.688 5.09-6.273 5.09-10.659 0-3.163-.922-5.875-2.739-8.063-1.804-2.17-4.934-4.162-9.302-5.923-3.479-1.396-5.708-2.555-6.627-3.445-.886-.86-1.336-2.075-1.336-3.614 0-1.365.555-2.458 1.696-3.344 1.15-.89 2.749-1.343 4.755-1.343 1.862 0 3.767.294 5.661.87 1.894.577 3.556 1.349 4.944 2.293l.457.312V41.348l-.176-.076c-1.28-.549-2.969-1.018-5.02-1.4-2.042-.377-3.894-.568-5.505-.568zm-47.119 40.051c-4.054 0-7.253-1.345-9.506-3.994-2.268-2.663-3.415-6.458-3.415-11.282 0-4.975 1.148-8.87 3.417-11.58 2.253-2.692 5.42-4.058 9.415-4.058 3.873 0 6.957 1.305 9.167 3.88 2.22 2.59 3.347 6.453 3.347 11.487 0 5.095-1.06 9.01-3.15 11.628-2.074 2.599-5.193 3.92-9.275 3.92zm.5-40.051c-7.74 0-13.887 2.267-18.267 6.739-4.379 4.473-6.6 10.661-6.6 18.397 0 7.35 2.168 13.257 6.443 17.562 4.275 4.308 10.093 6.49 17.291 6.49 7.5 0 13.525-2.3 17.905-6.833 4.379-4.53 6.6-10.66 6.6-18.215 0-7.462-2.084-13.416-6.193-17.693-4.112-4.278-9.892-6.447-17.18-6.447zm-41.83 9.257v-8.127h-11.039V87.36h11.038V63.356c0-4.082.926-7.435 2.752-9.968 1.803-2.503 4.205-3.77 7.139-3.77.994 0 2.11.163 3.319.488 1.196.322 2.063.672 2.574 1.04l.463.336V40.354l-.178-.077c-1.029-.437-2.482-.657-4.323-.657-2.773 0-5.256.891-7.382 2.646-1.866 1.542-3.215 3.657-4.247 6.295zm-30.806-9.257c-5.064 0-9.581 1.086-13.424 3.226-3.85 2.145-6.827 5.209-8.853 9.104-2.016 3.886-3.04 8.424-3.04 13.486 0 4.433.993 8.502 2.955 12.088 1.963 3.592 4.743 6.402 8.26 8.35 3.513 1.947 7.572 2.935 12.067 2.935 5.246 0 9.725-1.05 13.316-3.117l.145-.084V75.179l-.464.339a20.76 20.76 0 0 1-5.4 2.812c-1.951.68-3.73 1.025-5.29 1.025-4.33 0-7.807-1.356-10.332-4.027-2.53-2.676-3.812-6.432-3.812-11.16 0-4.757 1.338-8.61 3.974-11.454 2.627-2.834 6.11-4.272 10.353-4.272 3.628 0 7.163 1.228 10.508 3.655l.463.336V41.778l-.15-.085c-1.258-.704-2.975-1.286-5.107-1.727-2.121-.44-4.197-.662-6.17-.662zm-32.92 1.13h-11.038V87.36h11.039zm-5.406-19.99c-1.816 0-3.4.618-4.703 1.844-1.307 1.23-1.97 2.777-1.97 4.603 0 1.797.655 3.316 1.95 4.512 1.286 1.193 2.875 1.798 4.723 1.798 1.848 0 3.443-.605 4.745-1.796 1.31-1.198 1.975-2.717 1.975-4.514 0-1.763-.647-3.295-1.921-4.554-1.273-1.256-2.887-1.893-4.799-1.893zm-27.54 16.528V87.36h11.264V21.881h-15.59l-19.818 48.635-19.232-48.635h-16.226V87.36h10.586V36.967h.364l20.308 50.392h7.989l19.99-50.387z"/>
  <path fill="#f1511b" d="M51.927 51.927H0V0h51.927z"/>
  <path fill="#80cc28" d="M109.26 51.927H57.334V0h51.926z"/>
  <path fill="#00adef" d="M51.925 109.28H0V57.354h51.925z"/>
  <path fill="#fbbc09" d="M109.26 109.28H57.334V57.354h51.926z"/>
</svg>
